X:38
T:Lyar, The
M:6/8
L:1/8
B:Thompson's Compleat Collection of 200 Favourite Country Dances, vol. 3 (London, 1773)
Z:Transcribed and edited by Flynn Titford-Mock, 2007
Z:abc's:AK/Fiddler's Companion
K:G
G[G,G]G GBd | {d}cAG FED | G[G,G]G GBd | cAF G3::d2d d2e | {g}fed g2B |
cde dcB | A>BA {G}F>ED | G[G,G]G GBd | {d}cAG FED | G[G,G]G GBd | cAF G3 :|

